; G-Code generated by Simplify3D(R) Version 4.1.2
; Jan 11, 2021 at 10:20:22 PM
; Settings Summary
;   processName,Process1
;   applyToModels,pi_undershelf
;   profileName,FlashForge Creator Pro (modified)
;   profileVersion,2021-01-09 09:10:42
;   baseProfile,
;   printMaterial,PLA
;   printQuality,Medium
;   printExtruders,Right Extruder Only
;   extruderName,Right Extruder,Left Extruder
;   extruderToolheadNumber,0,1
;   extruderDiameter,0.4,0.4
;   extruderAutoWidth,0,0
;   extruderWidth,0.4,0.4
;   extrusionMultiplier,0.9,0.95
;   extruderUseRetract,1,1
;   extruderRetractionDistance,1,1
;   extruderExtraRestartDistance,0,0
;   extruderRetractionZLift,0,0
;   extruderRetractionSpeed,1200,1200
;   extruderUseCoasting,0,0
;   extruderCoastingDistance,0.2,0.2
;   extruderUseWipe,0,0
;   extruderWipeDistance,5,5
;   primaryExtruder,0
;   layerHeight,0.2
;   topSolidLayers,2
;   bottomSolidLayers,2
;   perimeterOutlines,3
;   printPerimetersInsideOut,1
;   startPointOption,2
;   startPointOriginX,0
;   startPointOriginY,0
;   sequentialIslands,0
;   spiralVaseMode,0
;   firstLayerHeightPercentage,90
;   firstLayerWidthPercentage,100
;   firstLayerUnderspeed,0.5
;   useRaft,0
;   raftExtruder,0
;   raftTopLayers,3
;   raftBaseLayers,2
;   raftOffset,3
;   raftSeparationDistance,0.14
;   raftTopInfill,100
;   aboveRaftSpeedMultiplier,0.3
;   useSkirt,0
;   skirtExtruder,0
;   skirtLayers,1
;   skirtOutlines,2
;   skirtOffset,4
;   usePrimePillar,0
;   primePillarExtruder,999
;   primePillarWidth,12
;   primePillarLocation,7
;   primePillarSpeedMultiplier,1
;   useOozeShield,0
;   oozeShieldExtruder,999
;   oozeShieldOffset,2
;   oozeShieldOutlines,1
;   oozeShieldSidewallShape,1
;   oozeShieldSidewallAngle,30
;   oozeShieldSpeedMultiplier,1
;   infillExtruder,0
;   internalInfillPattern,Full Honeycomb
;   externalInfillPattern,Rectilinear
;   infillPercentage,20
;   outlineOverlapPercentage,20
;   infillExtrusionWidthPercentage,100
;   minInfillLength,5
;   infillLayerInterval,1
;   internalInfillAngles,0,120,-120
;   overlapInternalInfillAngles,0
;   externalInfillAngles,45,-45
;   generateSupport,0
;   supportExtruder,0
;   supportInfillPercentage,20
;   supportExtraInflation,0
;   supportBaseLayers,0
;   denseSupportExtruder,0
;   denseSupportLayers,0
;   denseSupportInfillPercentage,70
;   supportLayerInterval,1
;   supportHorizontalPartOffset,0.3
;   supportUpperSeparationLayers,1
;   supportLowerSeparationLayers,1
;   supportType,1
;   supportGridSpacing,4
;   maxOverhangAngle,45
;   supportAngles,0
;   temperatureName,Right Extruder,Left Extruder,Heated Build Platform
;   temperatureNumber,0,1,0
;   temperatureSetpointCount,1,1,1
;   temperatureSetpointLayers,1,1,1
;   temperatureSetpointTemperatures,220,0,70
;   temperatureStabilizeAtStartup,1,0,1
;   temperatureHeatedBed,0,0,1
;   fanLayers,1
;   fanSpeeds,50
;   blipFanToFullPower,0
;   adjustSpeedForCooling,1
;   minSpeedLayerTime,15
;   minCoolingSpeedSlowdown,20
;   increaseFanForCooling,0
;   minFanLayerTime,45
;   maxCoolingFanSpeed,100
;   increaseFanForBridging,1
;   bridgingFanSpeed,100
;   use5D,1
;   relativeEdistances,1
;   allowEaxisZeroing,0
;   independentExtruderAxes,1
;   includeM10123,0
;   stickySupport,1
;   applyToolheadOffsets,0
;   gcodeXoffset,0
;   gcodeYoffset,0
;   gcodeZoffset,0
;   overrideMachineDefinition,1
;   machineTypeOverride,0
;   strokeXoverride,225
;   strokeYoverride,145
;   strokeZoverride,150
;   originOffsetXoverride,112.5
;   originOffsetYoverride,72.5
;   originOffsetZoverride,0
;   homeXdirOverride,1
;   homeYdirOverride,1
;   homeZdirOverride,-1
;   flipXoverride,1
;   flipYoverride,-1
;   flipZoverride,1
;   toolheadOffsets,0,0|34,0|0,0|0,0|0,0|0,0
;   overrideFirmwareConfiguration,1
;   firmwareTypeOverride,MakerBot/Sailfish Firmware
;   GPXconfigOverride,r1d
;   baudRateOverride,115200
;   overridePrinterModels,1
;   printerModelsOverride,FlashForge_CreatorPro.stl
;   startingGcode,; **** Replicator 1 dual start.gcode ****,M73 P0 ; enable build progress,G162 X Y F3000 ; home XY maximum,G161 Z F1200 ; home Z minimum,G92 Z-5 ; set Z to -5,G1 Z0 ; move Z to 0,G161 Z F100 ; home Z slowly,M132 X Y Z A B ; recall home offsets,M135 T0 ; load right extruder offsets,G1 X150 Y-70 Z30 F9000 ; move to wait position right hand side of the table,G130 X20 Y20 Z20 A20 B20 ; lower stepper Vrefs while heating,M126 S128,M140 S70 T0,M134 T0 ; stabilize bed temperature,M104 S220 T0,M133 T0 ; stabilize right extruder temperature,G130 X127 Y127 Z40 A127 B127 ; default stepper Vrefs,G92 A0 B0 ; zero extruders,G1 Z0.4 ; position nozzle,G1 X110 Y-70 E25 F300 ; purge nozzle,G1 X120 Y-70 Z0.15 F1200 ; slow wipe,G1 X110 Y-70 Z0.5 F1200 ; lift,G92 A0 B0 ; zero extruders,M73 P1 ;@body (notify GPX body has started),; **** end of start.gcode ****
;   layerChangeGcode,
;   retractionGcode,
;   toolChangeGcode,
;   endingGcode,; **** Replicator 1 dual end.gcode ****,M73 P100 ; end build progress,G1 Z150 F1000 ; send Z axis to bottom of machine,M140 S0 T0 ; cool down HBP,M104 S0 T0 ; cool down right extruder,M104 S0 T1 ; cool down left extruder,M127 ; stop blower fan,G162 X Y F3000 ; home XY maximum,M18 ; disable stepper,M72 P1 ; play Ta-Da song,; **** end of end.gcode ****
;   exportFileFormat,x3g
;   celebration,1
;   celebrationSong,Star Wars
;   postProcessing,
;   defaultSpeed,3600
;   outlineUnderspeed,0.5
;   solidInfillUnderspeed,0.8
;   supportUnderspeed,0.8
;   rapidXYspeed,4200
;   rapidZspeed,1200
;   minBridgingArea,15
;   bridgingExtraInflation,0
;   bridgingExtrusionMultiplier,0.95
;   bridgingSpeedMultiplier,0.8
;   useFixedBridgingAngle,0
;   fixedBridgingAngle,0
;   applyBridgingToPerimeters,1
;   filamentDiameters,1.75|1.75|1.75|1.75|1.75|1.75
;   filamentPricesPerKg,46|46|46|46|46|46
;   filamentDensities,1.25|1.25|1.25|1.25|1.25|1.25
;   useMinPrintHeight,0
;   minPrintHeight,0
;   useMaxPrintHeight,0
;   maxPrintHeight,0
;   useDiaphragm,0
;   diaphragmLayerInterval,20
;   robustSlicing,1
;   mergeAllIntoSolid,0
;   onlyRetractWhenCrossingOutline,1
;   retractBetweenLayers,1
;   useRetractionMinTravel,0
;   retractionMinTravel,3
;   retractWhileWiping,0
;   onlyWipeOutlines,1
;   avoidCrossingOutline,0
;   maxMovementDetourFactor,3
;   toolChangeRetractionDistance,12
;   toolChangeExtraRestartDistance,-0.5
;   toolChangeRetractionSpeed,600
;   externalThinWallType,0
;   internalThinWallType,2
;   thinWallAllowedOverlapPercentage,10
;   singleExtrusionMinLength,1
;   singleExtrusionMinPrintingWidthPercentage,50
;   singleExtrusionMaxPrintingWidthPercentage,200
;   singleExtrusionEndpointExtension,0.2
;   horizontalSizeCompensation,0
G90
M83
M126 S128
M140 S70 T0
M134 T0
M104 S220 T0
M104 S0 T1
M133 T0
; **** Replicator 1 dual start.gcode ****
M73 P0 ; enable build progress
G162 X Y F3000 ; home XY maximum
G161 Z F1200 ; home Z minimum
G92 Z-5 ; set Z to -5
G1 Z0 ; move Z to 0
G161 Z F100 ; home Z slowly
M132 X Y Z A B ; recall home offsets
M135 T0 ; load right extruder offsets
G1 X150 Y-70 Z30 F9000 ; move to wait position right hand side of the table
G130 X20 Y20 Z20 A20 B20 ; lower stepper Vrefs while heating
M126 S128
M140 S70 T0
M134 T0 ; stabilize bed temperature
M104 S220 T0
M133 T0 ; stabilize right extruder temperature
G130 X127 Y127 Z40 A127 B127 ; default stepper Vrefs
G92 A0 B0 ; zero extruders
G1 Z0.4 ; position nozzle
G1 X110 Y-70 E25 F300 ; purge nozzle
G1 X120 Y-70 Z0.15 F1200 ; slow wipe
G1 X110 Y-70 Z0.5 F1200 ; lift
G92 A0 B0 ; zero extruders
M73 P1 ;@body (notify GPX body has started)
; **** end of start.gcode ****
; process Process1
; layer 1, Z = 0.180
M135 T0
G1 E-1.0000 F1200
; feature inner perimeter
; tool H0.180 W0.400
G1 Z0.180 F1200
G1 X28.126 Y-49.376 F4200
G1 E1.0000 F1200
G1 X28.126 Y49.376 E2.6605 F1350
G1 X-28.126 Y49.376 E1.5155
G1 X-28.126 Y-49.376 E2.6605
G1 X28.126 Y-49.376 E1.5155
G1 X28.526 Y-49.776 F4200
G1 X28.526 Y49.776 E2.6820 F1350
G1 X-28.526 Y49.776 E1.5370
G1 X-28.526 Y-49.776 E2.6820
G1 X28.526 Y-49.776 E1.5370
; feature outer perimeter
G1 X28.926 Y-50.176 F4200
G1 X28.926 Y50.176 E2.7036 F900
G1 X-28.926 Y50.176 E1.5586
G1 X-28.926 Y-50.176 E2.7036
G1 X28.926 Y-50.176 E1.5586
; feature inner perimeter
G1 X22.520 Y-18.904 F4200
G1 X22.066 Y-18.964 E0.0123 F1350
G1 X-22.066 Y-18.964 E1.1889
G1 X-22.520 Y-18.904 E0.0123
G1 X-23.004 Y-18.704 E0.0141
G1 X-23.420 Y-18.385 E0.0141
G1 X-23.740 Y-17.969 E0.0141
G1 X-23.940 Y-17.484 E0.0141
G1 X-24.009 Y-16.964 E0.0141
G1 X-23.940 Y-16.444 E0.0141
G1 X-23.740 Y-15.960 E0.0141
G1 X-23.420 Y-15.544 E0.0141
G1 X-23.004 Y-15.225 E0.0141
G1 X-22.520 Y-15.024 E0.0141
G1 X-22.066 Y-14.964 E0.0123
G1 X22.066 Y-14.964 E1.1889
G1 X22.520 Y-15.024 E0.0123
G1 X23.004 Y-15.225 E0.0141
G1 X23.420 Y-15.544 E0.0141
G1 X23.740 Y-15.960 E0.0141
G1 X23.940 Y-16.444 E0.0141
G1 X24.009 Y-16.964 E0.0141
G1 X23.940 Y-17.484 E0.0141
G1 X23.740 Y-17.969 E0.0141
G1 X23.420 Y-18.385 E0.0141
G1 X23.004 Y-18.704 E0.0141
G1 X22.520 Y-18.904 E0.0141
G1 X22.415 Y-18.515 F4200
G1 X22.039 Y-18.564 E0.0102 F1350
G1 X-22.039 Y-18.564 E1.1875
G1 X-22.415 Y-18.515 E0.0102
G1 X-22.803 Y-18.354 E0.0113
G1 X-23.135 Y-18.099 E0.0113
G1 X-23.390 Y-17.767 E0.0113
G1 X-23.550 Y-17.380 E0.0113
G1 X-23.605 Y-16.964 E0.0113
G1 X-23.550 Y-16.549 E0.0113
G1 X-23.390 Y-16.162 E0.0113
G1 X-23.135 Y-15.829 E0.0113
G1 X-22.803 Y-15.574 E0.0113
G1 X-22.415 Y-15.414 E0.0113
G1 X-22.039 Y-15.364 E0.0102
G1 X22.039 Y-15.364 E1.1875
G1 X22.415 Y-15.414 E0.0102
G1 X22.803 Y-15.574 E0.0113
G1 X23.135 Y-15.829 E0.0113
G1 X23.390 Y-16.162 E0.0113
G1 X23.550 Y-16.549 E0.0113
G1 X23.605 Y-16.964 E0.0113
G1 X23.550 Y-17.380 E0.0113
G1 X23.390 Y-17.767 E0.0113
G1 X23.135 Y-18.099 E0.0113
G1 X22.803 Y-18.354 E0.0113
G1 X22.415 Y-18.515 E0.0113
; feature outer perimeter
G1 X22.311 Y-18.125 F4200
G1 X22.013 Y-18.164 E0.0081 F900
G1 X-22.013 Y-18.164 E1.1861
G1 X-22.311 Y-18.125 E0.0081
G1 X-22.601 Y-18.005 E0.0085
G1 X-22.850 Y-17.814 E0.0085
G1 X-23.041 Y-17.565 E0.0085
G1 X-23.161 Y-17.275 E0.0085
G1 X-23.202 Y-16.964 E0.0085
G1 X-23.161 Y-16.653 E0.0085
G1 X-23.041 Y-16.363 E0.0085
G1 X-22.850 Y-16.115 E0.0085
G1 X-22.601 Y-15.924 E0.0085
G1 X-22.311 Y-15.803 E0.0085
G1 X-22.013 Y-15.764 E0.0081
G1 X22.013 Y-15.764 E1.1861
G1 X22.311 Y-15.803 E0.0081
G1 X22.601 Y-15.924 E0.0085
G1 X22.850 Y-16.115 E0.0085
G1 X23.041 Y-16.363 E0.0085
G1 X23.161 Y-16.653 E0.0085
G1 X23.202 Y-16.964 E0.0085
G1 X23.161 Y-17.275 E0.0085
G1 X23.041 Y-17.565 E0.0085
G1 X22.850 Y-17.814 E0.0085
G1 X22.601 Y-18.005 E0.0085
G1 X22.311 Y-18.125 E0.0085
G1 E-1.0000 F1200
; feature inner perimeter
G1 X22.066 Y-10.679 F4200
G1 E1.0000 F1200
G1 X-22.066 Y-10.679 E1.1889 F1350
G1 X-22.520 Y-10.619 E0.0123
G1 X-23.004 Y-10.418 E0.0141
G1 X-23.420 Y-10.099 E0.0141
G1 X-23.740 Y-9.683 E0.0141
G1 X-23.940 Y-9.198 E0.0141
G1 X-24.009 Y-8.679 E0.0141
G1 X-23.940 Y-8.159 E0.0141
G1 X-23.740 Y-7.674 E0.0141
G1 X-23.420 Y-7.258 E0.0141
G1 X-23.004 Y-6.939 E0.0141
G1 X-22.520 Y-6.738 E0.0141
G1 X-22.066 Y-6.679 E0.0123
G1 X22.066 Y-6.679 E1.1889
G1 X22.520 Y-6.738 E0.0123
G1 X23.004 Y-6.939 E0.0141
G1 X23.420 Y-7.258 E0.0141
G1 X23.740 Y-7.674 E0.0141
G1 X23.940 Y-8.159 E0.0141
G1 X24.009 Y-8.679 E0.0141
G1 X23.940 Y-9.198 E0.0141
G1 X23.740 Y-9.683 E0.0141
G1 X23.420 Y-10.099 E0.0141
G1 X23.004 Y-10.418 E0.0141
G1 X22.520 Y-10.619 E0.0141
G1 X22.066 Y-10.679 E0.0123
G1 X22.039 Y-10.279 F4200
G1 X-22.039 Y-10.279 E1.1875 F1350
G1 X-22.415 Y-10.229 E0.0102
G1 X-22.803 Y-10.069 E0.0113
G1 X-23.135 Y-9.814 E0.0113
G1 X-23.390 Y-9.481 E0.0113
G1 X-23.550 Y-9.094 E0.0113
G1 X-23.605 Y-8.679 E0.0113
G1 X-23.550 Y-8.263 E0.0113
G1 X-23.390 Y-7.876 E0.0113
G1 X-23.135 Y-7.544 E0.0113
G1 X-22.803 Y-7.288 E0.0113
G1 X-22.415 Y-7.128 E0.0113
G1 X-22.039 Y-7.079 E0.0102
G1 X22.039 Y-7.079 E1.1875
G1 X22.415 Y-7.128 E0.0102
G1 X22.803 Y-7.288 E0.0113
G1 X23.135 Y-7.544 E0.0113
G1 X23.390 Y-7.876 E0.0113
G1 X23.550 Y-8.263 E0.0113
G1 X23.605 Y-8.679 E0.0113
G1 X23.550 Y-9.094 E0.0113
G1 X23.390 Y-9.481 E0.0113
G1 X23.135 Y-9.814 E0.0113
G1 X22.803 Y-10.069 E0.0113
G1 X22.415 Y-10.229 E0.0113
G1 X22.039 Y-10.279 E0.0102
; feature outer perimeter
G1 X22.013 Y-9.879 F4200
G1 X-22.013 Y-9.879 E1.1861 F900
G1 X-22.311 Y-9.839 E0.0081
G1 X-22.601 Y-9.719 E0.0085
G1 X-22.850 Y-9.528 E0.0085
G1 X-23.041 Y-9.279 E0.0085
G1 X-23.161 Y-8.990 E0.0085
G1 X-23.202 Y-8.679 E0.0085
G1 X-23.161 Y-8.368 E0.0085
G1 X-23.041 Y-8.078 E0.0085
G1 X-22.850 Y-7.829 E0.0085
G1 X-22.601 Y-7.638 E0.0085
G1 X-22.311 Y-7.518 E0.0085
G1 X-22.013 Y-7.479 E0.0081
G1 X22.013 Y-7.479 E1.1861
G1 X22.311 Y-7.518 E0.0081
G1 X22.601 Y-7.638 E0.0085
G1 X22.850 Y-7.829 E0.0085
G1 X23.041 Y-8.078 E0.0085
G1 X23.161 Y-8.368 E0.0085
G1 X23.202 Y-8.679 E0.0085
G1 X23.161 Y-8.990 E0.0085
G1 X23.041 Y-9.279 E0.0085
G1 X22.850 Y-9.528 E0.0085
G1 X22.601 Y-9.719 E0.0085
G1 X22.311 Y-9.839 E0.0085
G1 X22.013 Y-9.879 E0.0081
G1 E-1.0000 F1200
; feature inner perimeter
G1 X22.066 Y-2.393 F4200
G1 E1.0000 F1200
G1 X-22.066 Y-2.393 E1.1889 F1350
G1 X-22.520 Y-2.333 E0.0123
G1 X-23.004 Y-2.132 E0.0141
G1 X-23.420 Y-1.813 E0.0141
G1 X-23.740 Y-1.397 E0.0141
G1 X-23.940 Y-0.913 E0.0141
G1 X-24.009 Y-0.393 E0.0141
G1 X-23.940 Y0.127 E0.0141
G1 X-23.739 Y0.612 E0.0141
G1 X-23.420 Y1.027 E0.0141
G1 X-23.004 Y1.347 E0.0141
G1 X-22.520 Y1.547 E0.0141
G1 X-22.066 Y1.607 E0.0123
G1 X22.066 Y1.607 E1.1889
G1 X22.520 Y1.547 E0.0123
G1 X23.004 Y1.347 E0.0141
G1 X23.420 Y1.027 E0.0141
G1 X23.739 Y0.612 E0.0141
G1 X23.940 Y0.127 E0.0141
G1 X24.009 Y-0.393 E0.0141
G1 X23.940 Y-0.913 E0.0141
G1 X23.740 Y-1.397 E0.0141
G1 X23.420 Y-1.813 E0.0141
G1 X23.004 Y-2.132 E0.0141
G1 X22.520 Y-2.333 E0.0141
G1 X22.066 Y-2.393 E0.0123
G1 X22.039 Y-1.993 F4200
G1 X-22.039 Y-1.993 E1.1875 F1350
G1 X-22.415 Y-1.943 E0.0102
G1 X-22.803 Y-1.783 E0.0113
G1 X-23.135 Y-1.528 E0.0113
G1 X-23.390 Y-1.195 E0.0113
G1 X-23.550 Y-0.808 E0.0113
G1 X-23.605 Y-0.393 E0.0113
G1 X-23.550 Y0.023 E0.0113
G1 X-23.390 Y0.410 E0.0113
G1 X-23.135 Y0.742 E0.0113
G1 X-22.803 Y0.997 E0.0113
G1 X-22.415 Y1.158 E0.0113
G1 X-22.039 Y1.207 E0.0102
G1 X22.039 Y1.207 E1.1875
G1 X22.415 Y1.158 E0.0102
G1 X22.803 Y0.997 E0.0113
G1 X23.135 Y0.742 E0.0113
G1 X23.390 Y0.410 E0.0113
G1 X23.550 Y0.023 E0.0113
G1 X23.605 Y-0.393 E0.0113
G1 X23.550 Y-0.808 E0.0113
G1 X23.390 Y-1.195 E0.0113
G1 X23.135 Y-1.528 E0.0113
G1 X22.803 Y-1.783 E0.0113
G1 X22.415 Y-1.943 E0.0113
G1 X22.039 Y-1.993 E0.0102
; feature outer perimeter
G1 X22.013 Y-1.593 F4200
G1 X-22.013 Y-1.593 E1.1861 F900
G1 X-22.311 Y-1.554 E0.0081
G1 X-22.601 Y-1.434 E0.0085
G1 X-22.850 Y-1.243 E0.0085
G1 X-23.041 Y-0.994 E0.0085
G1 X-23.161 Y-0.704 E0.0085
G1 X-23.202 Y-0.393 E0.0085
G1 X-23.161 Y-0.082 E0.0085
G1 X-23.041 Y0.208 E0.0085
G1 X-22.850 Y0.457 E0.0085
G1 X-22.601 Y0.648 E0.0085
G1 X-22.311 Y0.768 E0.0085
G1 X-22.013 Y0.807 E0.0081
G1 X22.013 Y0.807 E1.1861
G1 X22.311 Y0.768 E0.0081
G1 X22.601 Y0.648 E0.0085
G1 X22.850 Y0.457 E0.0085
G1 X23.041 Y0.208 E0.0085
G1 X23.161 Y-0.082 E0.0085
G1 X23.202 Y-0.393 E0.0085
G1 X23.161 Y-0.704 E0.0085
G1 X23.041 Y-0.994 E0.0085
G1 X22.850 Y-1.243 E0.0085
G1 X22.601 Y-1.434 E0.0085
G1 X22.311 Y-1.554 E0.0085
G1 X22.013 Y-1.593 E0.0081
G1 E-1.0000 F1200
; feature inner perimeter
G1 X22.066 Y5.893 F4200
G1 E1.0000 F1200
G1 X-22.066 Y5.893 E1.1889 F1350
G1 X-22.520 Y5.953 E0.0123
G1 X-23.004 Y6.153 E0.0141
G1 X-23.420 Y6.473 E0.0141
G1 X-23.740 Y6.889 E0.0141
G1 X-23.940 Y7.373 E0.0141
G1 X-24.009 Y7.893 E0.0141
G1 X-23.940 Y8.413 E0.0141
G1 X-23.740 Y8.897 E0.0141
G1 X-23.420 Y9.313 E0.0141
G1 X-23.004 Y9.632 E0.0141
G1 X-22.520 Y9.833 E0.0141
G1 X-22.066 Y9.893 E0.0123
G1 X22.066 Y9.893 E1.1889
G1 X22.520 Y9.833 E0.0123
G1 X23.004 Y9.632 E0.0141
G1 X23.420 Y9.313 E0.0141
G1 X23.740 Y8.897 E0.0141
G1 X23.940 Y8.413 E0.0141
G1 X24.009 Y7.893 E0.0141
G1 X23.940 Y7.373 E0.0141
G1 X23.740 Y6.889 E0.0141
G1 X23.420 Y6.473 E0.0141
G1 X23.004 Y6.153 E0.0141
G1 X22.520 Y5.953 E0.0141
G1 X22.066 Y5.893 E0.0123
G1 X22.039 Y6.293 F4200
